X: 42174
T: Waterford
R: waltz
M: 3/4
K: Dmajor
FG|A2 A2 d2|B2 B2 e2|cB AB ce|d2 f2 a2|
A2 A2 d2|B2 B2 e2|cB AB ce|d4:|
fa|ge Ac eg|fd Ad fd|ce ge dc|d2 f2 a2|
ge Ac eg|fd Ad fd|ce ge dc|d4:|
FG|Ad fd Ad|Bd gd Bd|cB AB ce|d2 f2 a2|
Ad fd Ad|Bd gd Bd|cB AB ce|d4:|
fg|a2 a2 d'2|b2 g2 g2|fd ge fd|ed cB AF|
a2 a2 d'2|b2 g2 g2|fd ge dc|d4:|

